X: 20444
T: WILLIAMS'S HORNPIPE
C:
%R: hornpipe, reel
B: Elias Howe "The Musician's Companion" 1843 p.44 #4
S: http://imslp.org/wiki/The_Musician's_Companion_(Howe,_Elias)
Z: 2015 John Chambers <jc:trillian.mit.edu>
M: 2/4
L: 1/16
K: D
% - - - - - - - - - - - - - - - - - - - - - - - - -
FG |\
Adcd FAGA | DFEG D2EF | GFGA BFGA | E^DEF E2FG |\
Adcd FAGA | DFEG D2EF | GFAG BGEC | D2D2D2 :|
|: cd |\
e^dfe gfag | dced fdbg | fa^ga dfef | eagb a2cd |\
e^dfe gfag | dced fdag | fadf egce | dAFA d2 :|
% - - - - - - - - - - - - - - - - - - - - - - - - -

%%sep 1 1 500

